X:28
T:Coachman's Whip
R:reel
D:"Chasing the bear" by Jon Hicks
Z:Transcribed by Lionel Gueganton
L:1/8
M:4/4
K:Db
|: d2 BG DG BG | EG G/A/B d=B _B=B |1 d2 BG DG BG      | FG A=B _BG G/G/G 
                                  :|2 FG AB =Bd ef     | ge dB B/A/G AB
|: D2 DE GF GB |1 dB BD GB GD      | EG G/A/B d=B _B=B | =BB/d/ B_B AG EF 
              :|2 dB BG DG BG      | FG AB =Bd ef      | ge dB B/A/G AB

